X: 21604
T: Killarney Wonder Schottise, The
R: barndance
M: 4/4
K: Adorian
|:[A2E2]AB {d}cB ce|dB (3gab af g2|[A2E2]AB {d}cB ce|dB GB {c}BA A2:|
|:a2 ag a2 ba|ga gd (3ega gd|ea gb a2 ba|{a}gf gd {c}BA A2|
(3aba (3gab a2 g2|(3efe (3ded (3cdc BA|[A2E2] AB {d}cB ce|dB GB {c}BA A2:|

